; generated by Slic3r 1.2.9 on 2015-06-28 at 14:22:45

; Adjusted filiment diameter to 2.94
; Changed extrusion multiplier to .9

; external perimeters extrusion width = 0.50mm
; perimeters extrusion width = 0.72mm
; infill extrusion width = 0.72mm
; solid infill extrusion width = 0.72mm
; top infill extrusion width = 0.72mm
; support material extrusion width = 0.50mm

M107
G28 ; home all axes
G21 ; set units to millimeters
G90 ; use absolute coordinates
M82 ; use absolute distances for extrusion
G92 E0
G1 E-1.70000 F1800.00000
G92 E0
G1 Z0.298 F7800.000
G1 X74.289 Y58.784 F7800.000
G1 E1.70000 F1800.00000
G1 X74.671 Y58.301 E1.70934 F1800.000
G1 X76.093 Y56.959 E1.73901
G1 X77.406 Y56.038 E1.76335
G1 X77.770 Y55.800 E1.76994
G1 X79.517 Y54.752 E1.80086
G1 X80.938 Y54.007 E1.82520
G1 X82.794 Y53.165 E1.85612
G1 X91.496 Y49.826 E1.99756
G1 X93.776 Y49.381 E2.03280
G1 X95.682 Y49.368 E2.06173
G1 X96.686 Y49.396 E2.07697 F1800.000
G1 X99.005 Y49.881 E2.11293
G1 X106.849 Y53.034 E2.24119
G1 X108.914 Y53.956 E2.27551
G1 X110.715 Y54.908 E2.30643
G1 X112.452 Y55.974 E2.33735
G1 X113.769 Y56.890 E2.36169
G1 X114.133 Y57.162 E2.36858
G1 X115.703 Y58.429 E2.39920
G1 X117.204 Y59.808 E2.43013
G1 X118.321 Y60.958 E2.45446
G1 X119.655 Y62.500 E2.48539
G1 X120.886 Y64.123 E2.51631
G1 X121.135 Y64.479 E2.52290
G1 X122.237 Y66.193 E2.55381
G1 X123.226 Y67.975 E2.58474
G1 X124.088 Y69.787 E2.61518
G1 X127.437 Y77.929 E2.74877
G1 X127.924 Y79.969 E2.78060
G1 X128.041 Y81.447 E2.80310
G1 X128.062 Y82.070 E2.81255
G1 X128.039 Y83.828 E2.83923
G1 X127.841 Y85.367 E2.86278
G1 X116.171 Y132.461 E3.59898
G1 X115.799 Y133.831 E3.62052
G1 X115.626 Y134.374 E3.62916
G1 X115.193 Y135.559 E3.64832
G1 X114.975 Y136.085 E3.65696
G1 X114.451 Y137.216 E3.67587
G1 X114.183 Y137.736 E3.68475
G1 X113.557 Y138.832 E3.70390
G1 X113.254 Y139.314 E3.71254
G1 X112.539 Y140.354 E3.73169
G1 X112.196 Y140.809 E3.74033
G1 X111.396 Y141.785 E3.75948
G1 X111.017 Y142.210 E3.76812
G1 X110.137 Y143.115 E3.78727
G1 X109.723 Y143.506 E3.79592
G1 X108.770 Y144.334 E3.81507
G1 X108.326 Y144.688 E3.82369
G1 X107.306 Y145.434 E3.84286
G1 X106.833 Y145.750 E3.85150
G1 X105.754 Y146.408 E3.87067
G1 X105.257 Y146.682 E3.87929
G1 X104.127 Y147.246 E3.89844
G1 X103.608 Y147.479 E3.90708
G1 X102.434 Y147.946 E3.92624
G1 X101.898 Y148.133 E3.93488
G1 X100.690 Y148.500 E3.95403
G1 X100.138 Y148.642 E3.96267
G1 X98.904 Y148.906 E3.98182
G1 X98.343 Y149.001 E3.99046
G1 X97.091 Y149.160 E4.00961
G1 X96.524 Y149.208 E4.01823
G1 X95.262 Y149.261 E4.03740
G1 X94.693 Y149.261 E4.04604
G1 X93.431 Y149.208 E4.06521
G1 X92.864 Y149.160 E4.07383
G1 X91.612 Y149.001 E4.09299
G1 X91.051 Y148.906 E4.10163
G1 X89.816 Y148.642 E4.12079
G1 X89.265 Y148.500 E4.12942
G1 X88.057 Y148.133 E4.14857
G1 X87.520 Y147.945 E4.15721
G1 X86.347 Y147.479 E4.17636
G1 X85.827 Y147.246 E4.18500
G1 X84.698 Y146.682 E4.20415
G1 X84.201 Y146.408 E4.21277
G1 X83.122 Y145.750 E4.23195
G1 X82.649 Y145.434 E4.24059
G1 X81.629 Y144.688 E4.25975
G1 X81.184 Y144.334 E4.26838
G1 X80.231 Y143.506 E4.28754
G1 X79.818 Y143.115 E4.29617
G1 X78.938 Y142.210 E4.31532
G1 X78.559 Y141.785 E4.32396
G1 X77.758 Y140.808 E4.34313
G1 X77.416 Y140.354 E4.35175
G1 X76.701 Y139.314 E4.37090
G1 X76.398 Y138.832 E4.37954
G1 X75.772 Y137.736 E4.39871
G1 X75.511 Y137.230 E4.40734
G1 X74.979 Y136.085 E4.42649
G1 X74.762 Y135.559 E4.43513
G1 X74.194 Y133.965 E4.46080
G1 X69.134 Y116.809 E4.73221
G1 X68.490 Y114.045 E4.77528
G1 X63.636 Y87.673 E5.18216
G1 X63.401 Y85.953 E5.20851
G1 X63.281 Y84.591 E5.22926
G1 X63.255 Y84.000 E5.23823
G1 X63.255 Y81.000 E5.28375
G1 X63.303 Y80.199 E5.29592
G1 X63.649 Y77.292 E5.34034
G1 X63.789 Y76.512 E5.35236
G1 X64.473 Y73.666 E5.39678
G1 X64.703 Y72.908 E5.40880
G1 X65.715 Y70.161 E5.45322
G1 X66.758 Y68.301 E5.48558
G1 X74.242 Y58.843 E5.66860
G1 X74.543 Y59.081 F7800.000
G1 X74.972 Y58.539 E5.67908 F1800.000
G1 X76.313 Y57.273 E5.70706
G1 X77.626 Y56.352 E5.73141
G1 X77.986 Y56.118 E5.73792
G1 X79.695 Y55.092 E5.76817
G1 X81.116 Y54.347 E5.79251
G1 X82.950 Y53.516 E5.82306
G1 X91.633 Y50.184 E5.96419
G1 X93.783 Y49.764 E5.99743
G1 X95.679 Y49.751 E6.02620
G1 X96.674 Y49.779 E6.04130 F1800.000
G1 X98.862 Y50.237 E6.07522
G1 X106.705 Y53.390 E6.20349
G1 X108.737 Y54.296 E6.23724
G1 X110.517 Y55.237 E6.26779
G1 X112.233 Y56.289 E6.29833
G1 X113.550 Y57.205 E6.32267
G1 X113.878 Y57.450 E6.32888
G1 X115.446 Y58.713 E6.35943
G1 X116.929 Y60.075 E6.38999
G1 X118.046 Y61.226 E6.41432
G1 X119.363 Y62.749 E6.44487
G1 X120.579 Y64.353 E6.47542
G1 X120.814 Y64.689 E6.48164
G1 X121.903 Y66.382 E6.51218
G1 X122.881 Y68.142 E6.54274
G1 X123.733 Y69.933 E6.57283
G1 X127.082 Y78.075 E6.70642
G1 X127.542 Y79.999 E6.73644
G1 X127.659 Y81.478 E6.75894
G1 X127.678 Y82.065 E6.76786
G1 X127.655 Y83.823 E6.79454
G1 X127.468 Y85.275 E6.81675
G1 X115.799 Y132.369 E7.55296
G1 X115.429 Y133.730 E7.57436
G1 X115.266 Y134.242 E7.58251
G1 X114.833 Y135.428 E7.60166
G1 X114.628 Y135.924 E7.60981
G1 X114.103 Y137.054 E7.62873
G1 X113.850 Y137.546 E7.63712
G1 X113.224 Y138.642 E7.65627
G1 X112.938 Y139.097 E7.66442
G1 X112.223 Y140.137 E7.68357
G1 X111.900 Y140.566 E7.69172
G1 X111.099 Y141.542 E7.71087
G1 X110.742 Y141.942 E7.71902
G1 X109.862 Y142.847 E7.73817
G1 X109.472 Y143.216 E7.74633
G1 X108.519 Y144.044 E7.76548
G1 X108.100 Y144.379 E7.77361
G1 X107.080 Y145.124 E7.79278
G1 X106.633 Y145.423 E7.80093
G1 X105.555 Y146.080 E7.82010
G1 X105.086 Y146.339 E7.82823
G1 X103.956 Y146.903 E7.84738
G1 X103.466 Y147.122 E7.85553
G1 X102.293 Y147.589 E7.87469
G1 X101.786 Y147.766 E7.88284
G1 X100.578 Y148.133 E7.90199
G1 X100.058 Y148.267 E7.91014
G1 X98.824 Y148.531 E7.92929
G1 X98.294 Y148.621 E7.93744
G1 X97.042 Y148.780 E7.95659
G1 X96.508 Y148.825 E7.96473
G1 X95.246 Y148.878 E7.98390
G1 X94.709 Y148.878 E7.99204
G1 X93.464 Y148.825 E8.01096
G1 X92.913 Y148.780 E8.01935
G1 X91.661 Y148.621 E8.03850
G1 X91.131 Y148.531 E8.04665
G1 X89.896 Y148.267 E8.06581
G1 X89.377 Y148.133 E8.07395
G1 X88.169 Y147.766 E8.09310
G1 X87.662 Y147.589 E8.10125
G1 X86.489 Y147.122 E8.12041
G1 X85.999 Y146.903 E8.12856
G1 X84.869 Y146.339 E8.14771
G1 X84.401 Y146.080 E8.15584
G1 X83.321 Y145.423 E8.17501
G1 X82.875 Y145.124 E8.18316
G1 X81.855 Y144.379 E8.20232
G1 X81.436 Y144.044 E8.21046
G1 X80.495 Y143.227 E8.22938
G1 X80.093 Y142.847 E8.23776
G1 X79.213 Y141.942 E8.25692
G1 X78.856 Y141.542 E8.26507
G1 X78.065 Y140.578 E8.28398
G1 X77.732 Y140.137 E8.29237
G1 X77.017 Y139.097 E8.31152
G1 X76.731 Y138.642 E8.31967
G1 X76.105 Y137.545 E8.33883
G1 X75.859 Y137.069 E8.34697
G1 X75.327 Y135.924 E8.36612
G1 X75.122 Y135.428 E8.37427
G1 X74.562 Y133.857 E8.39958
G1 X69.501 Y116.701 E8.67099
G1 X68.810 Y113.696 E8.71777
G1 X64.016 Y87.619 E9.12009
G1 X63.783 Y85.919 E9.14613
G1 X63.663 Y84.557 E9.16687
G1 X63.639 Y84.000 E9.17533
G1 X63.639 Y81.000 E9.22086
G1 X63.684 Y80.245 E9.23234
G1 X64.030 Y77.338 E9.27676
G1 X64.170 Y76.567 E9.28865
G1 X64.846 Y73.756 E9.33252
G1 X65.063 Y73.041 E9.34385
G1 X66.075 Y70.293 E9.38828
G1 X67.059 Y68.539 E9.41880
G1 X74.496 Y59.139 E9.60068
G1 E7.90068 F1800.00000
G92 E0
G1 X77.294 Y60.594 F7800.000
G1 E1.70000 F1800.00000
G1 X77.453 Y60.288 E1.70524 F1800.000
G1 X79.462 Y58.880 E1.74247
G1 X81.009 Y57.933 E1.76998
G1 X82.613 Y57.088 E1.79749
G1 X84.268 Y56.348 E1.82501
G1 X85.967 Y55.715 E1.85252
G1 X87.703 Y55.192 E1.88003
G1 X89.487 Y54.777 E1.90782
G1 X90.710 Y54.577 E1.92662
G1 X90.858 Y54.468 E1.92942
G1 X91.027 Y54.132 E1.93512
G1 X91.624 Y53.472 E1.94863
G1 X92.483 Y52.930 E1.96403
G1 X93.335 Y52.673 E1.97754
G1 X95.702 Y52.630 E2.01346
G1 X95.788 Y52.653 E2.01482 F1800.000
G1 X97.544 Y52.707 E2.04146
G1 X98.983 Y53.553 E2.06680
G1 X99.583 Y54.559 E2.08457
G1 X99.724 Y54.654 E2.08716
G1 X100.368 Y54.758 E2.09706
G1 X102.051 Y55.139 E2.12324
G1 X103.791 Y55.649 E2.15076
G1 X105.592 Y56.309 E2.17985
G1 X107.250 Y57.043 E2.20737
G1 X108.857 Y57.883 E2.23488
G1 X110.407 Y58.823 E2.26239
G1 X111.809 Y59.799 E2.28831
G1 X113.310 Y60.993 E2.31741
G1 X114.652 Y62.213 E2.34493
G1 X115.912 Y63.516 E2.37243
G1 X117.086 Y64.897 E2.39995
G1 X118.169 Y66.351 E2.42746
G1 X119.103 Y67.782 E2.45338
G1 X119.997 Y69.360 E2.48089
G1 X120.788 Y70.991 E2.50841
G1 X121.509 Y72.768 E2.53750
G1 X122.079 Y74.489 E2.56502
G1 X122.513 Y76.142 E2.59094
G1 X122.798 Y77.580 E2.61319
G1 X122.906 Y77.722 E2.61589
G1 X124.046 Y78.294 E2.63526
G1 X124.898 Y80.857 E2.67624
G1 X124.742 Y81.169 E2.68153
G1 X124.729 Y81.313 E2.68373
G1 X124.838 Y81.690 E2.68968
G1 X124.696 Y83.076 E2.71082
G1 X124.814 Y83.569 E2.71851
G1 X124.682 Y84.713 E2.73599
G1 X123.403 Y87.263 E2.77928
G1 X122.902 Y87.430 E2.78729
G1 X122.765 Y87.586 E2.79044
G1 X122.537 Y88.754 E2.80851
G1 X112.774 Y131.591 E3.47518
G1 X112.398 Y132.975 E3.49693
G1 X111.876 Y134.420 E3.52025
G1 X111.171 Y135.938 E3.54564
G1 X110.405 Y137.270 E3.56895
G1 X109.611 Y138.422 E3.59018
G1 X108.550 Y139.716 E3.61558
G1 X107.475 Y140.814 E3.63890
G1 X106.312 Y141.817 E3.66220
G1 X105.181 Y142.643 E3.68345
G1 X103.872 Y143.448 E3.70677
G1 X102.375 Y144.195 E3.73216
G1 X101.074 Y144.713 E3.75339
G1 X99.606 Y145.164 E3.77670
G1 X97.969 Y145.514 E3.80210
G1 X96.445 Y145.701 E3.82541
G1 X94.909 Y145.760 E3.84873
G1 X93.510 Y145.701 E3.86997
G1 X91.986 Y145.514 E3.89328
G1 X90.348 Y145.164 E3.91868
G1 X88.880 Y144.712 E3.94199
G1 X87.455 Y144.139 E3.96530
G1 X86.083 Y143.448 E3.98861
G1 X84.888 Y142.720 E4.00985
G1 X83.536 Y141.732 E4.03525
G1 X82.480 Y140.814 E4.05648
G1 X81.405 Y139.716 E4.07979
G1 X80.426 Y138.532 E4.10311
G1 X79.550 Y137.270 E4.12642
G1 X78.783 Y135.938 E4.14974
G1 X78.079 Y134.420 E4.17513
G1 X77.557 Y132.975 E4.19845
G1 X77.181 Y131.591 E4.22020
G1 X74.045 Y117.832 E4.43433
G1 X73.939 Y117.697 E4.43694
G1 X72.756 Y117.104 E4.45702
G1 X71.904 Y114.541 E4.49800
G1 X71.935 Y114.402 E4.50016
G1 X71.866 Y113.925 E4.50748
G1 X71.720 Y113.601 E4.51286
G1 X71.558 Y112.474 E4.53014
G1 X71.718 Y111.489 E4.54529
G1 X72.292 Y110.343 E4.56473
G1 X72.308 Y110.210 E4.56676
G1 X67.410 Y88.715 E4.90129
G1 X67.114 Y87.221 E4.92440
G1 X66.908 Y85.779 E4.94650
G1 X66.649 Y82.855 E4.99104
G1 X66.851 Y82.636 E4.99556
G1 X66.853 Y82.341 E5.00003
G1 X66.612 Y82.069 E5.00554
G1 X67.177 Y77.425 E5.07654
G1 X67.960 Y74.210 E5.12675
G1 X69.359 Y70.412 E5.18816
G1 X71.040 Y69.240 E5.21925
G1 X76.493 Y69.240 E5.30199
G1 X76.717 Y69.015 E5.30681
G1 X76.717 Y61.703 E5.41776
G1 X77.259 Y60.661 E5.43558
G1 X77.599 Y60.838 F7800.000
G1 X77.750 Y60.548 E5.44054 F1800.000
G1 X79.677 Y59.197 E5.47625
G1 X81.203 Y58.264 E5.50339
G1 X82.786 Y57.431 E5.53053
G1 X84.418 Y56.700 E5.55767
G1 X86.094 Y56.076 E5.58480
G1 X87.807 Y55.561 E5.61194
G1 X89.565 Y55.153 E5.63933
G1 X90.965 Y54.924 E5.66085
G1 X91.113 Y54.814 E5.66365
G1 X91.346 Y54.350 E5.67153
G1 X91.873 Y53.768 E5.68345
G1 X92.643 Y53.282 E5.69726
G1 X93.396 Y53.056 E5.70918
G1 X95.600 Y53.011 E5.74263
G1 X95.686 Y53.034 E5.74399 F1800.000
G1 X97.434 Y53.087 E5.77053
G1 X98.704 Y53.834 E5.79288
G1 X99.345 Y54.909 E5.81188
G1 X99.486 Y55.005 E5.81447
G1 X100.291 Y55.134 E5.82684
G1 X101.961 Y55.512 E5.85281
G1 X103.677 Y56.015 E5.87994
G1 X105.443 Y56.662 E5.90848
G1 X107.078 Y57.387 E5.93562
G1 X108.664 Y58.214 E5.96276
G1 X110.115 Y59.091 E5.98850
G1 X111.585 Y60.110 E6.01563
G1 X112.987 Y61.221 E6.04277
G1 X114.314 Y62.420 E6.06991
G1 X115.562 Y63.701 E6.09705
G1 X116.783 Y65.132 E6.12559
G1 X117.851 Y66.566 E6.15273
G1 X118.778 Y67.987 E6.17846
G1 X119.660 Y69.543 E6.20560
G1 X120.477 Y71.236 E6.23414
G1 X121.147 Y72.895 E6.26127
G1 X121.709 Y74.593 E6.28842
G1 X122.141 Y76.233 E6.31415
G1 X122.457 Y77.838 E6.33898
G1 X122.565 Y77.980 E6.34169
G1 X123.733 Y78.565 E6.36150
G1 X124.484 Y80.827 E6.39766
G1 X124.332 Y81.131 E6.40282
G1 X124.318 Y81.275 E6.40501
G1 X124.449 Y81.727 E6.41215
G1 X124.350 Y82.807 E6.42862
G1 X124.306 Y82.894 E6.43009
G1 X124.290 Y83.029 E6.43215
G1 X124.425 Y83.592 E6.44093
G1 X124.308 Y84.602 E6.45635
G1 X123.132 Y86.949 E6.49620
G1 X122.568 Y87.136 E6.50521
G1 X122.431 Y87.292 E6.50836
G1 X122.162 Y88.672 E6.52969
G1 X112.400 Y131.502 E7.19625
G1 X112.030 Y132.866 E7.21769
G1 X111.518 Y134.281 E7.24052
G1 X110.834 Y135.755 E7.26518
G1 X110.084 Y137.059 E7.28800
G1 X109.300 Y138.198 E7.30899
G1 X108.269 Y139.455 E7.33365
G1 X107.217 Y140.530 E7.35648
G1 X106.079 Y141.512 E7.37930
G1 X104.962 Y142.329 E7.40029
G1 X103.679 Y143.116 E7.42312
G1 X102.225 Y143.842 E7.44778
G1 X100.940 Y144.353 E7.46877
G1 X99.503 Y144.795 E7.49158
G1 X97.913 Y145.134 E7.51625
G1 X96.420 Y145.318 E7.53907
G1 X94.917 Y145.377 E7.56190
G1 X93.535 Y145.318 E7.58290
G1 X92.042 Y145.134 E7.60571
G1 X90.452 Y144.795 E7.63038
G1 X89.015 Y144.353 E7.65320
G1 X87.619 Y143.792 E7.67602
G1 X86.276 Y143.116 E7.69884
G1 X85.094 Y142.396 E7.71984
G1 X83.782 Y141.437 E7.74450
G1 X82.738 Y140.530 E7.76549
G1 X81.686 Y139.455 E7.78831
G1 X80.728 Y138.295 E7.81114
G1 X79.871 Y137.059 E7.83396
G1 X79.121 Y135.755 E7.85679
G1 X78.437 Y134.281 E7.88145
G1 X77.925 Y132.866 E7.90427
G1 X77.554 Y131.502 E7.92572
G1 X74.379 Y117.571 E8.14254
G1 X74.273 Y117.435 E8.14514
G1 X73.070 Y116.832 E8.16556
G1 X72.316 Y114.563 E8.20186
G1 X72.331 Y114.467 E8.20333
G1 X72.237 Y113.812 E8.21336
G1 X72.092 Y113.488 E8.21875
G1 X71.946 Y112.477 E8.23425
G1 X72.087 Y111.608 E8.24761
G1 X72.697 Y110.392 E8.26826
G1 X72.713 Y110.259 E8.27028
G1 X67.785 Y88.637 E8.60678
G1 X67.493 Y87.161 E8.62961
G1 X67.289 Y85.730 E8.65155
G1 X67.046 Y82.990 E8.69329
G1 X67.367 Y82.640 E8.70050
G1 X67.370 Y82.345 E8.70497
G1 X67.013 Y81.943 E8.71312
G1 X67.552 Y77.503 E8.78099
G1 X68.324 Y74.332 E8.83052
G1 X69.678 Y70.657 E8.88993
G1 X71.161 Y69.623 E8.91736
G1 X76.876 Y69.623 E9.00409
G1 X77.101 Y69.399 E9.00891
G1 X77.101 Y61.797 E9.12426
G1 X77.565 Y60.905 E9.13952
G1 X77.905 Y61.082 F7800.000
G1 X78.047 Y60.809 E9.14419 F1800.000
G1 X79.892 Y59.515 E9.17839
G1 X81.397 Y58.595 E9.20515
G1 X82.958 Y57.773 E9.23191
G1 X84.569 Y57.053 E9.25868
G1 X86.222 Y56.438 E9.28544
G1 X87.911 Y55.930 E9.31221
G1 X89.643 Y55.529 E9.33919
G1 X91.220 Y55.271 E9.36344
G1 X91.369 Y55.161 E9.36624
G1 X91.665 Y54.569 E9.37629
G1 X92.123 Y54.064 E9.38662
G1 X92.804 Y53.634 E9.39884
G1 X93.456 Y53.438 E9.40918
G1 X95.515 Y53.396 E9.44043
G1 X95.584 Y53.415 E9.44152
G1 X97.324 Y53.467 E9.46793 F1800.000
G1 X98.425 Y54.114 E9.48730
G1 X99.108 Y55.260 E9.50753
G1 X99.249 Y55.355 E9.51012
G1 X100.215 Y55.510 E9.52496
G1 X101.870 Y55.885 E9.55071
G1 X103.562 Y56.382 E9.57748
G1 X105.294 Y57.016 E9.60545
G1 X106.907 Y57.730 E9.63222
G1 X108.471 Y58.546 E9.65898
G1 X109.979 Y59.460 E9.68575
G1 X111.361 Y60.422 E9.71130
G1 X112.743 Y61.518 E9.73806
G1 X114.052 Y62.700 E9.76483
G1 X115.282 Y63.964 E9.79159
G1 X116.479 Y65.367 E9.81957
G1 X117.488 Y66.715 E9.84512
G1 X118.454 Y68.191 E9.87189
G1 X119.323 Y69.726 E9.89865
G1 X120.092 Y71.313 E9.92542
G1 X120.785 Y73.022 E9.95339
G1 X121.317 Y74.620 E9.97895
G1 X121.768 Y76.325 E10.00571
G1 X122.117 Y78.097 E10.03312
G1 X122.225 Y78.239 E10.03582
G1 X123.419 Y78.837 E10.05608
G1 X124.070 Y80.797 E10.08742
G1 X123.922 Y81.093 E10.09245
G1 X123.908 Y81.237 E10.09464
G1 X124.060 Y81.764 E10.10296
G1 X123.974 Y82.700 E10.11723
G1 X123.900 Y82.848 E10.11973
G1 X123.885 Y82.982 E10.12178
G1 X124.036 Y83.615 E10.13166
G1 X123.935 Y84.490 E10.14503
G1 X122.860 Y86.635 E10.18144
G1 X122.235 Y86.843 E10.19143
G1 X122.098 Y86.999 E10.19459
G1 X121.788 Y88.590 E10.21918
G1 X112.027 Y131.413 E10.88563
G1 X111.662 Y132.757 E10.90677
G1 X111.161 Y134.142 E10.92910
G1 X110.497 Y135.572 E10.95303
G1 X109.764 Y136.848 E10.97536
G1 X108.989 Y137.974 E10.99610
G1 X107.988 Y139.193 E11.02003
G1 X106.959 Y140.245 E11.04237
G1 X105.928 Y141.142 E11.06311
G1 X104.742 Y142.015 E11.08545
G1 X103.395 Y142.835 E11.10938
G1 X102.172 Y143.445 E11.13012
G1 X100.806 Y143.994 E11.15246
G1 X99.297 Y144.451 E11.17638
G1 X97.857 Y144.755 E11.19871
G1 X96.501 Y144.927 E11.21946
G1 X95.030 Y144.993 E11.24179
G1 X93.627 Y144.938 E11.26310
G1 X91.995 Y144.737 E11.28805
G1 X90.658 Y144.451 E11.30880
