; generated by Slic3r 1.2.9 on 2015-06-27 at 15:10:58

; Adjusted filiment diameter to 2.94
; Changed extrusion multiplier to .9

; external perimeters extrusion width = 0.50mm
; perimeters extrusion width = 0.72mm
; infill extrusion width = 0.72mm
; solid infill extrusion width = 0.72mm
; top infill extrusion width = 0.72mm
; support material extrusion width = 0.50mm

M107
G28 ; home all axes
G21 ; set units to millimeters
G90 ; use absolute coordinates
M82 ; use absolute distances for extrusion
G92 E0
G1 E-1.70000 F1800.00000
G92 E0
G1 Z0.298 F7800.000
G1 X74.572 Y46.293 F7800.000
G1 E1.70000 F1800.00000
G1 X75.593 Y44.729 E1.72834 F1800.000
G1 X75.957 Y44.228 E1.73774
G1 X76.929 Y43.011 E1.76137
G1 X77.338 Y42.545 E1.77078
G1 X78.417 Y41.422 E1.79441
G1 X78.866 Y40.996 E1.80381
G1 X80.044 Y39.976 E1.82745
G1 X80.531 Y39.592 E1.83685
G1 X81.796 Y38.685 E1.86048
G1 X82.316 Y38.347 E1.86989
G1 X83.650 Y37.565 E1.89335
G1 X84.208 Y37.271 E1.90293
G1 X85.618 Y36.610 E1.92656
G1 X86.191 Y36.372 E1.93596
G1 X87.655 Y35.843 E1.95959
G1 X88.247 Y35.659 E1.96900
G1 X89.754 Y35.265 E1.99263
G1 X90.360 Y35.136 E2.00204
G1 X91.898 Y34.882 E2.02569
G1 X93.000 Y34.792 E2.04246
G1 X97.000 Y34.792 E2.10316
G1 X98.102 Y34.882 E2.11994
G1 X99.640 Y35.136 E2.14358 F1800.000
G1 X100.246 Y35.265 E2.15299
G1 X101.753 Y35.659 E2.17662
G1 X102.345 Y35.843 E2.18603
G1 X103.809 Y36.372 E2.20966
G1 X104.382 Y36.610 E2.21906
G1 X105.792 Y37.271 E2.24269
G1 X106.340 Y37.559 E2.25209
G1 X107.684 Y38.347 E2.27573
G1 X108.213 Y38.692 E2.28531
G1 X109.469 Y39.592 E2.30877
G1 X109.956 Y39.976 E2.31817
G1 X111.134 Y40.996 E2.34181
G1 X111.583 Y41.422 E2.35120
G1 X112.662 Y42.545 E2.37484
G1 X113.071 Y43.011 E2.38424
G1 X114.043 Y44.228 E2.40788
G1 X114.407 Y44.730 E2.41729
G1 X115.428 Y46.293 E2.44562
G1 X135.197 Y79.538 E3.03252
G1 X136.291 Y81.486 E3.06643
G1 X137.367 Y83.642 E3.10298
G1 X138.330 Y85.850 E3.13953
G1 X139.179 Y88.105 E3.17609
G1 X139.910 Y90.400 E3.21265
G1 X140.518 Y92.714 E3.24895
G1 X141.074 Y95.431 E3.29102
G1 X141.425 Y97.814 E3.32758
G1 X141.654 Y100.212 E3.36413
G1 X141.751 Y102.271 E3.39541
G1 X141.749 Y104.664 E3.43171
G1 X141.623 Y107.085 E3.46850
G1 X141.327 Y109.826 E3.51034
G1 X141.001 Y111.861 E3.54160
G1 X140.506 Y114.218 E3.57815
G1 X139.792 Y116.881 E3.61999
G1 X139.156 Y118.843 E3.65128
G1 X138.305 Y121.095 E3.68781
G1 X137.339 Y123.301 E3.72436
G1 X136.094 Y125.762 E3.76620
G1 X134.891 Y127.849 E3.80275
G1 X133.602 Y129.841 E3.83876
G1 X110.518 Y162.358 E4.44385
G1 X108.872 Y163.991 E4.47903
G1 X106.772 Y164.972 E4.51420
G1 X105.000 Y165.208 E4.54133
G1 X85.000 Y165.208 E4.84481
G1 X82.716 Y164.811 E4.87998
G1 X80.700 Y163.667 E4.91516
G1 X79.482 Y162.358 E4.94228
G1 X56.223 Y129.582 E5.55212
G1 X54.929 Y127.551 E5.58867
G1 X53.905 Y125.762 E5.61994
G1 X52.661 Y123.301 E5.66177
G1 X51.828 Y121.417 E5.69304
G1 X50.959 Y119.170 E5.72959
G1 X50.109 Y116.547 E5.77143
G1 X49.575 Y114.557 E5.80270
G1 X49.063 Y112.203 E5.83925
G1 X48.626 Y109.481 E5.88109
G1 X48.377 Y107.085 E5.91763
G1 X48.262 Y105.028 E5.94890
G1 X48.249 Y102.270 E5.99074
G1 X48.346 Y100.212 E6.02201
G1 X48.575 Y97.814 E6.05856
G1 X48.987 Y95.088 E6.10040
G1 X49.400 Y93.069 E6.13166
G1 X49.994 Y90.735 E6.16822
G1 X50.821 Y88.104 E6.21005
G1 X51.669 Y85.850 E6.24660
G1 X52.633 Y83.642 E6.28316
G1 X53.546 Y81.795 E6.31442
G1 X54.716 Y79.689 E6.35098
G1 X74.533 Y46.358 E6.93938
G1 X74.863 Y46.554 F7800.000
G1 X75.913 Y44.940 E6.96859 F1800.000
G1 X76.257 Y44.468 E6.97745
G1 X77.229 Y43.251 E7.00109
G1 X77.614 Y42.811 E7.00996
G1 X78.693 Y41.688 E7.03359
G1 X79.117 Y41.286 E7.04246
G1 X80.295 Y40.266 E7.06610
G1 X80.754 Y39.904 E7.07497
G1 X82.020 Y38.997 E7.09860
G1 X82.510 Y38.678 E7.10747
G1 X83.843 Y37.896 E7.13093
G1 X84.371 Y37.618 E7.13997
G1 X85.781 Y36.957 E7.16361
G1 X86.321 Y36.733 E7.17248
G1 X87.786 Y36.203 E7.19611
G1 X88.344 Y36.030 E7.20498
G1 X89.851 Y35.636 E7.22861
G1 X90.423 Y35.515 E7.23749
G1 X91.961 Y35.261 E7.26113
G1 X93.000 Y35.175 E7.27696
G1 X97.000 Y35.175 E7.33766
G1 X98.040 Y35.261 E7.35348
G1 X99.577 Y35.515 E7.37713 F1800.000
G1 X100.149 Y35.636 E7.38600
G1 X101.656 Y36.030 E7.40963
G1 X102.214 Y36.203 E7.41851
G1 X103.679 Y36.733 E7.44214
G1 X104.219 Y36.957 E7.45101
G1 X105.629 Y37.618 E7.47464
G1 X106.146 Y37.890 E7.48350
G1 X107.490 Y38.678 E7.50714
G1 X107.990 Y39.004 E7.51619
G1 X109.246 Y39.904 E7.53965
G1 X109.705 Y40.266 E7.54852
G1 X110.883 Y41.286 E7.57215
G1 X111.306 Y41.688 E7.58102
G1 X112.386 Y42.811 E7.60466
G1 X112.771 Y43.250 E7.61352
G1 X113.743 Y44.468 E7.63716
G1 X114.087 Y44.941 E7.64603
G1 X115.099 Y46.489 E7.67410
G1 X134.867 Y79.734 E8.26100
G1 X135.957 Y81.674 E8.29476
G1 X137.023 Y83.812 E8.33101
G1 X137.978 Y86.002 E8.36726
G1 X138.819 Y88.238 E8.40352
G1 X139.544 Y90.515 E8.43978
G1 X140.147 Y92.810 E8.47578
G1 X140.695 Y95.488 E8.51726
G1 X141.044 Y97.852 E8.55351
G1 X141.270 Y100.230 E8.58976
G1 X141.367 Y102.289 E8.62104
G1 X141.365 Y104.662 E8.65705
G1 X141.240 Y107.063 E8.69353
G1 X140.949 Y109.765 E8.73477
G1 X140.622 Y111.800 E8.76604
G1 X140.131 Y114.138 E8.80229
G1 X139.427 Y116.763 E8.84353
G1 X138.791 Y118.724 E8.87481
G1 X137.947 Y120.958 E8.91105
G1 X136.988 Y123.146 E8.94730
G1 X135.762 Y125.572 E8.98854
G1 X134.568 Y127.641 E9.02479
G1 X133.289 Y129.619 E9.06053
G1 X110.205 Y162.136 E9.66562
G1 X108.599 Y163.713 E9.69978
G1 X106.545 Y164.635 E9.73393
G1 X105.000 Y164.825 E9.75756
G1 X85.000 Y164.825 E10.06103
G1 X82.784 Y164.428 E10.09519
G1 X80.844 Y163.286 E10.12935
G1 X79.795 Y162.136 E10.15297
G1 X56.546 Y129.375 E10.76254
G1 X55.262 Y127.360 E10.79879
G1 X54.238 Y125.571 E10.83006
G1 X53.012 Y123.146 E10.87130
G1 X52.053 Y120.958 E10.90755
G1 X51.318 Y119.033 E10.93881
G1 X50.479 Y116.448 E10.98005
G1 X49.946 Y114.457 E11.01132
G1 X49.438 Y112.123 E11.04757
G1 X49.008 Y109.440 E11.08881
G1 X48.760 Y107.064 E11.12505
G1 X48.645 Y105.006 E11.15633
G1 X48.633 Y102.288 E11.19757
G1 X48.730 Y100.230 E11.22883
G1 X48.956 Y97.852 E11.26508
G1 X49.363 Y95.164 E11.30632
G1 X49.775 Y93.146 E11.33759
G1 X50.365 Y90.831 E11.37384
G1 X51.181 Y88.238 E11.41508
G1 X52.021 Y86.002 E11.45133
G1 X52.977 Y83.812 E11.48759
G1 X54.043 Y81.674 E11.52384
G1 X55.050 Y79.876 E11.55511
G1 X74.825 Y46.618 E12.14222
G1 E10.44222 F1800.00000
G92 E0
G1 X77.509 Y48.215 F7800.000
G1 E1.70000 F1800.00000
G1 X78.651 Y46.475 E1.73157 F1800.000
G1 X79.814 Y45.029 E1.75973
G1 X80.997 Y43.799 E1.78563
G1 X82.513 Y42.486 E1.81606
G1 X84.025 Y41.410 E1.84422
G1 X85.630 Y40.477 E1.87238
G1 X87.175 Y39.753 E1.89828
G1 X88.918 Y39.115 E1.92644
G1 X90.858 Y38.608 E1.95687
G1 X93.958 Y38.096 E2.00455
G1 X94.859 Y38.861 E2.02247
G1 X95.141 Y38.861 E2.02674
G1 X96.042 Y38.096 E2.04467
G1 X97.543 Y38.344 E2.06775
G1 X99.288 Y38.640 E2.09462 F1800.000
G1 X100.939 Y39.071 E2.12051
G1 X102.687 Y39.695 E2.14867
G1 X104.502 Y40.547 E2.17910
G1 X106.100 Y41.492 E2.20726
G1 X107.604 Y42.579 E2.23542
G1 X109.003 Y43.798 E2.26358
G1 X110.284 Y45.141 E2.29175
G1 X111.349 Y46.475 E2.31765
G1 X112.355 Y47.990 E2.34524
G1 X132.194 Y81.348 E2.93416
G1 X133.252 Y83.237 E2.96701
G1 X134.242 Y85.234 E3.00083
G1 X135.128 Y87.278 E3.03464
G1 X135.907 Y89.366 E3.06846
G1 X136.577 Y91.492 E3.10227
G1 X137.123 Y93.593 E3.13521
G1 X137.600 Y95.914 E3.17116
G1 X137.931 Y98.118 E3.20498
G1 X138.149 Y100.335 E3.23879
G1 X138.250 Y102.477 E3.27133
G1 X138.242 Y104.706 E3.30515
G1 X138.112 Y107.014 E3.34022
G1 X137.871 Y109.229 E3.37404
G1 X137.516 Y111.429 E3.40785
G1 X137.068 Y113.526 E3.44038
G1 X136.493 Y115.680 E3.47421
G1 X135.780 Y117.879 E3.50929
G1 X134.982 Y119.960 E3.54310
G1 X134.115 Y121.920 E3.57564
G1 X133.111 Y123.910 E3.60945
G1 X132.007 Y125.845 E3.64327
G1 X130.803 Y127.722 E3.67709
G1 X129.506 Y129.533 E3.71090
G1 X128.117 Y131.275 E3.74470
G1 X126.542 Y133.045 E3.78065
G1 X125.018 Y134.592 E3.81361
G1 X123.374 Y136.096 E3.84742
G1 X121.655 Y137.514 E3.88123
G1 X119.865 Y138.841 E3.91504
G1 X118.080 Y140.030 E3.94758
G1 X116.165 Y141.170 E3.98139
G1 X114.195 Y142.210 E4.01520
G1 X112.172 Y143.147 E4.04902
G1 X110.105 Y143.979 E4.08284
G1 X108.403 Y144.564 E4.11014
G1 X108.260 Y144.764 E4.11387
G1 X108.260 Y145.250 E4.12126
G1 X108.375 Y145.436 E4.12456
G1 X109.190 Y145.844 E4.13840
G1 X110.041 Y148.407 E4.17938
G1 X109.764 Y148.961 E4.18877
G1 X109.750 Y149.100 E4.19090
G1 X109.864 Y149.532 E4.19767
G1 X109.740 Y150.729 E4.21593
G1 X109.864 Y151.244 E4.22397
G1 X109.741 Y152.430 E4.24206
G1 X108.281 Y155.344 E4.29153
G1 X108.260 Y155.431 E4.29288
G1 X108.260 Y159.791 E4.35904
G1 X106.350 Y161.701 E4.40003
G1 X95.650 Y161.701 E4.56240
G1 X95.159 Y161.211 E4.57293
G1 X94.841 Y161.211 E4.57775
G1 X94.350 Y161.701 E4.58828
G1 X83.650 Y161.701 E4.75065
G1 X81.740 Y159.791 E4.79164
G1 X81.740 Y144.764 E5.01966
G1 X81.597 Y144.564 E5.02340
G1 X79.895 Y143.978 E5.05071
G1 X77.905 Y143.180 E5.08324
G1 X75.881 Y142.247 E5.11705
G1 X73.835 Y141.170 E5.15214
G1 X71.920 Y140.030 E5.18595
G1 X70.135 Y138.842 E5.21849
G1 X68.391 Y137.548 E5.25144
G1 X66.626 Y136.096 E5.28612
G1 X64.922 Y134.534 E5.32121
G1 X63.361 Y132.944 E5.35502
G1 X61.883 Y131.275 E5.38883
G1 X60.545 Y129.600 E5.42137
G1 X59.277 Y127.838 E5.45431
G1 X58.037 Y125.918 E5.48899
G1 X56.929 Y123.984 E5.52281
G1 X55.921 Y121.997 E5.55662
G1 X54.986 Y119.882 E5.59170
G1 X54.192 Y117.800 E5.62552
G1 X53.531 Y115.760 E5.65806
G1 X52.951 Y113.608 E5.69187
G1 X52.468 Y111.347 E5.72696
G1 X52.129 Y109.229 E5.75949
G1 X51.888 Y107.014 E5.79331
G1 X51.758 Y104.706 E5.82839
G1 X51.749 Y102.561 E5.86094
G1 X51.851 Y100.335 E5.89475
G1 X52.079 Y98.034 E5.92983
G1 X52.400 Y95.914 E5.96237
G1 X52.844 Y93.730 E5.99618
G1 X53.423 Y91.491 E6.03127
G1 X54.093 Y89.366 E6.06508
G1 X54.841 Y87.357 E6.09762
G1 X55.758 Y85.234 E6.13271
G1 X56.747 Y83.237 E6.16652
G1 X57.806 Y81.348 E6.19938
G1 X77.471 Y48.279 E6.78318
G1 X77.801 Y48.475 F7800.000
G1 X78.956 Y46.708 E6.81522 F1800.000
G1 X80.097 Y45.289 E6.84285
G1 X81.267 Y44.071 E6.86848
G1 X82.744 Y42.793 E6.89811
G1 X84.227 Y41.737 E6.92573
G1 X85.684 Y40.882 E6.95137
G1 X87.452 Y40.053 E6.98099
G1 X89.166 Y39.440 E7.00862
G1 X90.800 Y39.013 E7.03425
G1 X93.846 Y38.504 E7.08110
G1 X94.859 Y39.364 E7.10127
G1 X95.141 Y39.364 E7.10554
G1 X96.154 Y38.504 E7.12571
G1 X99.071 Y38.985 E7.17056 F1800.000
G1 X100.834 Y39.440 E7.19819
G1 X102.548 Y40.053 E7.22582
G1 X104.316 Y40.882 E7.25544
G1 X105.947 Y41.854 E7.28425
G1 X107.360 Y42.874 E7.31070
G1 X108.637 Y43.980 E7.33633
G1 X109.990 Y45.388 E7.36596
G1 X111.122 Y46.814 E7.39359
G1 X112.067 Y48.253 E7.41972
G1 X131.863 Y81.542 E8.00740
G1 X132.950 Y83.486 E8.04119
G1 X133.927 Y85.466 E8.07470
G1 X134.801 Y87.495 E8.10821
G1 X135.546 Y89.496 E8.14061
G1 X136.210 Y91.602 E8.17412
G1 X136.765 Y93.740 E8.20763
G1 X137.209 Y95.903 E8.24114
G1 X137.541 Y98.087 E8.27466
G1 X137.760 Y100.284 E8.30817
G1 X137.868 Y102.564 E8.34281
G1 X137.858 Y104.699 E8.37520
G1 X137.737 Y106.904 E8.40870
G1 X137.492 Y109.174 E8.44334
G1 X137.140 Y111.354 E8.47686
G1 X136.694 Y113.441 E8.50924
G1 X136.137 Y115.525 E8.54197
G1 X135.444 Y117.677 E8.57628
G1 X134.630 Y119.809 E8.61091
G1 X133.734 Y121.828 E8.64442
G1 X132.771 Y123.733 E8.67681
G1 X131.676 Y125.651 E8.71032
G1 X130.483 Y127.510 E8.74384
G1 X129.197 Y129.306 E8.77735
G1 X127.820 Y131.032 E8.81086
G1 X126.269 Y132.776 E8.84629
G1 X124.755 Y134.313 E8.87901
G1 X123.126 Y135.804 E8.91253
G1 X121.422 Y137.209 E8.94604
G1 X119.648 Y138.525 E8.97955
G1 X117.871 Y139.708 E9.01194
G1 X115.974 Y140.838 E9.04545
G1 X114.020 Y141.868 E9.07896
G1 X112.016 Y142.797 E9.11248
G1 X109.967 Y143.621 E9.14599
G1 X108.020 Y144.290 E9.17723
G1 X107.877 Y144.490 E9.18096
G1 X107.877 Y145.487 E9.19610
G1 X107.991 Y145.672 E9.19941
G1 X108.876 Y146.116 E9.21442
G1 X109.627 Y148.378 E9.25058
G1 X109.356 Y148.919 E9.25977
G1 X109.342 Y149.058 E9.26190
G1 X109.475 Y149.562 E9.26981
G1 X109.342 Y150.770 E9.28825
G1 X109.475 Y151.274 E9.29616
G1 X109.367 Y152.321 E9.31213
G1 X108.094 Y154.862 E9.35525
G1 X108.022 Y154.885 E9.35640
G1 X107.877 Y155.086 E9.36016
G1 X107.877 Y159.633 E9.42914
G1 X106.192 Y161.318 E9.46530
G1 X95.808 Y161.318 E9.62286
G1 X95.159 Y160.668 E9.63679
G1 X94.841 Y160.668 E9.64162
G1 X94.192 Y161.318 E9.65556
G1 X83.808 Y161.318 E9.81311
G1 X82.123 Y159.633 E9.84927
G1 X82.123 Y144.490 E10.07904
G1 X81.980 Y144.290 E10.08277
G1 X80.033 Y143.621 E10.11402
G1 X78.052 Y142.826 E10.14640
G1 X76.047 Y141.901 E10.17991
G1 X74.027 Y140.838 E10.21455
G1 X72.129 Y139.708 E10.24807
G1 X70.352 Y138.525 E10.28046
G1 X68.620 Y137.240 E10.31317
G1 X66.874 Y135.804 E10.34748
G1 X65.192 Y134.261 E10.38212
G1 X63.644 Y132.685 E10.41563
G1 X62.180 Y131.032 E10.44914
G1 X60.848 Y129.364 E10.48153
G1 X59.588 Y127.614 E10.51425
G1 X58.363 Y125.714 E10.54855
G1 X57.264 Y123.798 E10.58207
G1 X56.266 Y121.828 E10.61558
G1 X55.342 Y119.740 E10.65022
G1 X54.555 Y117.677 E10.68374
G1 X53.876 Y115.575 E10.71725
G1 X53.323 Y113.513 E10.74964
G1 X52.846 Y111.281 E10.78427
G1 X52.508 Y109.174 E10.81666
G1 X52.269 Y106.978 E10.85018
G1 X52.142 Y104.699 E10.88481
G1 X52.132 Y102.564 E10.91720
G1 X52.234 Y100.358 E10.95071
G1 X52.459 Y98.086 E10.98535
G1 X52.778 Y95.976 E11.01774
G1 X53.219 Y93.812 E11.05125
G1 X53.790 Y91.602 E11.08589
G1 X54.454 Y89.495 E11.11940
G1 X55.199 Y87.495 E11.15179
G1 X56.104 Y85.399 E11.18643
G1 X57.084 Y83.420 E11.21994
G1 X58.137 Y81.542 E11.25261
G1 X77.762 Y48.540 E11.83523
G1 X78.092 Y48.736 F7800.000
G1 X78.290 Y48.405 E11.84109 F1800.000
G1 X79.261 Y46.940 E11.86775
G1 X80.379 Y45.548 E11.89485
G1 X81.538 Y44.343 E11.92021
G1 X82.974 Y43.099 E11.94904
G1 X84.429 Y42.063 E11.97613
G1 X85.972 Y41.165 E12.00323
G1 X87.485 Y40.455 E12.02860
G1 X89.162 Y39.842 E12.05569
G1 X91.001 Y39.362 E12.08452
G1 X93.733 Y38.911 E12.12654
G1 X94.859 Y39.867 E12.14895
G1 X95.141 Y39.867 E12.15322
G1 X96.267 Y38.911 E12.17564
G1 X97.418 Y39.101 E12.19333
G1 X99.111 Y39.386 E12.21939 F1800.000
G1 X100.728 Y39.808 E12.24475
G1 X102.410 Y40.411 E12.27185
G1 X104.129 Y41.218 E12.30067
G1 X105.667 Y42.125 E12.32777
G1 X107.115 Y43.170 E12.35487
G1 X108.462 Y44.343 E12.38196
G1 X109.696 Y45.634 E12.40906
G1 X110.739 Y46.940 E12.43443
G1 X111.710 Y48.405 E12.46109
G1 X131.532 Y81.736 E13.04953
G1 X132.578 Y83.603 E13.08201
G1 X133.550 Y85.565 E13.11522
G1 X134.419 Y87.573 E13.14843
G1 X135.184 Y89.625 E13.18165
G1 X135.842 Y91.712 E13.21487
G1 X136.380 Y93.785 E13.24736
G1 X136.843 Y96.038 E13.28226
G1 X137.169 Y98.203 E13.31548
G1 X137.383 Y100.381 E13.34869
G1 X137.483 Y102.504 E13.38093
G1 X137.475 Y104.693 E13.41415
G1 X137.349 Y106.942 E13.44833
G1 X137.112 Y109.118 E13.48154
G1 X136.764 Y111.279 E13.51475
G1 X136.305 Y113.419 E13.54797
G1 X135.755 Y115.471 E13.58021
G1 X135.081 Y117.554 E13.61342
G1 X134.301 Y119.599 E13.64663
G1 X133.390 Y121.659 E13.68082
G1 X132.401 Y123.612 E13.71403
G1 X131.346 Y125.456 E13.74627
G1 X130.128 Y127.352 E13.78046
G1 X128.888 Y129.078 E13.81270
G1 X127.524 Y130.788 E13.84591
G1 X126.029 Y132.474 E13.88009
G1 X124.538 Y133.989 E13.91234
G1 X122.926 Y135.469 E13.94555
G1 X121.189 Y136.904 E13.97974
G1 X119.431 Y138.208 E14.01295
G1 X117.663 Y139.386 E14.04519
G1 X115.726 Y140.537 E14.07938
G1 X113.788 Y141.555 E14.11259
G1 X111.859 Y142.446 E14.14483
G1 X109.768 Y143.285 E14.17902
G1 X107.642 Y144.010 E14.21311
G1 X107.493 Y144.213 E14.21692
G1 X107.493 Y145.724 E14.23986
G1 X107.608 Y145.909 E14.24316
G1 X108.562 Y146.388 E14.25936
G1 X109.213 Y148.348 E14.29070
G1 X108.948 Y148.877 E14.29968
G1 X108.934 Y149.016 E14.30181
G1 X109.086 Y149.592 E14.31085
G1 X108.993 Y150.500 E14.32469
G1 X108.948 Y150.589 E14.32620
G1 X108.934 Y150.728 E14.32833
G1 X109.086 Y151.304 E14.33737
G1 X108.993 Y152.212 E14.35121
G1 X107.822 Y154.548 E14.39086
G1 X107.638 Y154.609 E14.39380
G1 X107.493 Y154.810 E14.39756
G1 X107.493 Y159.474 E14.46833
G1 X106.033 Y160.934 E14.49967
G1 X95.967 Y160.934 E14.65240
G1 X95.159 Y160.126 E14.66975
G1 X94.841 Y160.126 E14.67457
G1 X94.033 Y160.934 E14.69192
G1 X83.967 Y160.934 E14.84465
